X:654
T: Tujia changqi fengshouge
N: C2179
O: China, Hunan Sangzhi
S: I, 503]
R: Shange]
M: 2/4
L: 1/16
K: C
c2A2c2A2 | G8 | e2c2e2c2 | d8
e2A2e2A2 | c4e2A2 | G2G2A4 | G8
c2A2c2A2 | G8 | e2c4e2 | c2A2G6A2
c2A2c2A2 | G4z4 | c2A2e2c2 | d8
e2A2e2A2 | c4e2A2 | G2G2A4 | G8

